modules/themify-icons/icons/agenda.svg

<?xml version="1.0" encoding="utf-8"?>
<!-- Generated by IcoMoon.io -->
<!DOCTYPE svg PUBLIC "-//W3C//DTD SVG 1.1//EN" "http://www.w3.org/Graphics/SVG/1.1/DTD/svg11.dtd">
<svg version="1.1" xmlns="http://www.w3.org/2000/svg" xmlns:xlink="http://www.w3.org/1999/xlink" width="17" height="17" viewBox="0 0 17 17">
<g>
</g>
	<path d="M14 2v-2h-13v17h13v-2h2v-13h-2zM2 16v-15h2v15h-2zM13 16h-8v-15h8v15zM15 14h-1v-3h1v3zM15 10h-1v-3h1v3zM14 6v-3h1v3h-1zM6 4h5v1h-5v-1zM6 6h4v1h-4v-1z" fill="#000000" />
</svg>

<svg xmlns="http://www.w3.org/2000/svg" width="17" height="17"><path d="M14 2V0H1v17h13v-2h2V2h-2zM2 16V1h2v15H2zm11 0H5V1h8v15zm2-2h-1v-3h1v3zm0-4h-1V7h1v3zm-1-4V3h1v3h-1zM6 4h5v1H6V4zm0 2h4v1H6V6z"/></svg>
